X: 37413
T: Sleigh Ride
R: polka
M: 2/4
K: Cmajor
.d.d .d.d|.d.d .d.d|dg- gc|B3 G/A/|
.B.B .B.B|.B.B .B.B|Be- eB|A3 E/F/|
G/F/E EG|Fc BA|Gf ed|c3 B/A/|
B/A/^G GA|Ba ^g^f|e2 B2|e3:|

